assets/svg/separator-not-simple.svg

<?xml version="1.0" encoding="UTF-8" standalone="no"?>
<svg width="250px" height="11px" viewBox="0 0 250 11" version="1.1" xmlns="http://www.w3.org/2000/svg" xmlns:xlink="http://www.w3.org/1999/xlink">
    <defs>
        <path id="path-1" d="M0.757359,5.49999999 L6.257359,0 L11.757359,5.49999999 L6.257359,11 L0.757359,5.49999999 L0.757359,5.49999999 Z"></path>
        <path id="path-2" d="M239,5.49999999 L244.5,0 L250,5.49999999 L244.5,11 L239,5.49999999 L239,5.49999999 Z"></path>
    </defs>
    <g id="Page-1" stroke="none" stroke-width="1" fill="none" fill-rule="evenodd">
        <g id="Rectangle-1-+-Rectangle-11-path-2-+-Rectangle-11-path-3">
            <rect id="Rectangle-1" fill="#000000" x="9" y="4" width="233" height="3"></rect>
            <g id="Rectangle-11-path-2">
                <use fill="#000000" fill-rule="evenodd" xlink:href="#path-1"></use>
                <use fill="none" xlink:href="#path-1"></use>
            </g>
            <g id="Rectangle-11-path-3">
                <use fill="#000000" fill-rule="evenodd" xlink:href="#path-2"></use>
                <use fill="none" xlink:href="#path-2"></use>
            </g>
        </g>
    </g>
</svg>

<svg width="250" height="11" xmlns="http://www.w3.org/2000/svg" xmlns:xlink="http://www.w3.org/1999/xlink"><defs><path id="a" d="M.7574 5.5l5.5-5.5 5.5 5.5-5.5 5.5-5.5-5.5z"/><path id="b" d="M239 5.5l5.5-5.5 5.5 5.5-5.5 5.5-5.5-5.5z"/></defs><g fill="none" fill-rule="evenodd"><path fill="#000" d="M9 4h233v3H9z"/><use fill="#000" xlink:href="#a"/><use xlink:href="#a"/><g><use fill="#000" xlink:href="#b"/><use xlink:href="#b"/></g></g></svg>
